X:1
T:Come Holy Ghost
T:Come Holy Ghost
T:John Playford
T:Source : The Whole Book of Psalms---London---W.Godbid---1677. Editor : André Vierendeels (26/08/16).
T:Notes : Original clefs : G2, G2, F4, F4(BC) Hymn at Consecr. of Priests
T:©
T:©
T:©
C:John Playford
Z:©
%%score [ 1 2 ] 3
L:1/8
Q:1/4=105
M:2/2
K:C
V:1 treble nm="Soprano" snm="S"
V:2 treble-8 nm="Tenor" snm="T"
V:3 bass nm="MusicXML Part"
V:1
 A8 | B4 ^G4 | c4 B4 | A4 ^G4 | A8 || E8 | A4 ^G4 | A4 c4 | c4 B4 | c8 || c8 | d4 e4 | A4 B4 | %13
w: Come|Ho- ly|Ghost, our|souls in-|spire,|&|ligh- ten|with ce-|les- tian|fire!|Thou|the A-|noi- ting|
 c4 A4 | G8 || B8 | c4 d4 | ^G4 A4 | A4 ^G4 | A8 |] %20
w: Spi- rit|art,|who|dost thy|sev'n fold|gifts im-|part.|
V:2
 c8 | d4 e4 | e4 d4 | c4 B4 | A8 || c8 | d4 e4 | f4 e4 | d4 d4 | c8 || e8 | d4 c4 | c4 G4 | %13
w: Come|Ho- ly|Ghost, our|souls in-|spire,|and|ligh- ten|with ce-|les- tian|fire!|Thou|the A-|noi- ting|
 G4 ^F4 | G8 || G8 | G4 ^F4 | B4 c4 | B4 B4 | A8 |] %20
w: Spi- rit|art,|who|dost thy|sev'n fold|gifts im-|part.|
V:3
"^Bass""^BC" A,8 | G,4 E,4 | C,4 G,4 | D,4 E,4 | A,,8 ||"^B""^BC" A,,8 | F,4 E,4 | D,4 C,4 | %8
w: Come|Ho- ly|Ghost our|souls in-|spire,|and|ligh- ten|with ce-|
 F,4 G,4 | C,8 ||"^BC""^B" C,8 | B,,4 A,,4 | F,4 G,4 | C,4 D,4 | G,,8 ||"^BC""^B" G,8 | E,4 D,4 | %17
w: les- tian|fire!|Thoi|the A-|noi- ting|Spi- rit|art,|who|dost thy|
 E,4 C,4 | D,4 E,4 | A,,8 |] %20
w: sev'n fold|gifts im-|part.|

